X: 20621
T: the Brave Lads of Gallawater
%R: march
B: James Oswald "The Caledonian Pocket Companion" v.2 p.62
Z: 2019 John Chambers <jc:trillian.mit.edu>
M: C
L: 1/8
K: D
|: "_Slow"\
TF2ED D3E | F2d2 (AF)(ED) | F2E2 E2(FA) | ~B3d TB2A2 |\
A2(AB) d3e | (fe)(dB) d3e | f2E2 E2(FA) | B2(ed) TB2A2 ::\
D3d (AF)(EF) |
D3d AFTED | e2E2 E2(FA) | (B^c)(dc) TB2A2 |\
f3e (fe)(dB) | (AF)(AB) d2 (d/e/f) | TF2E2 E2(FA) | B2(ed) TB2A2 ::\
FADA FADd |
fdAF dAFD | e2E2 e2E2 | gfed TB2A2 |\
ABde Tf2ed | Tf2ed B2(A/B/d) | TF2E2 E2FA | B2ed TB2A2 ::\
f2ed D2fd | D2fd afTed |
b2e2 e2de | faba Tf2e2 |\
d2ef B2df | A2Bd TF3A | B2E2 E2FA | ~B3d TB2A2 ::\
F3E DEFG | A2Bc dA FD | E2e2 E2ef |
gfed TB2A2 |\
fadb caBf | gBed (TcB)(TAG) | F2E2 E2(FA) | B2(ed) TB2A2 ::\
(DF)(AF) (DF)(Ad) | (DF)(AF) (DF)(Ad) | (EG)(BG) (EG) (Be) |
(EG)(BG) (EG) (Be) |\
(DF)(Ad) (FA) (df) | (df)ad' b3d' | f2e2 e2fa | b3d' Tb2a2 ::\
(F/E/D) (.D.D) (.D.D.D.D) | (F/E/D) dD (F/E/)D dD |
(G/F/E) (.E.E) (.E.E.E.E) | (G/F/)E eE (G/F/)E eE |\
(F/E/)D (.D.D) (A/G/)F (.F.F) | d2f2 B3d | F2E2 E2(FA) | B2ed TB2A2 ::\
(df)(af) (dA) FD |
(AD)(FD) (AD)(FD) | (e^g)(bg) eB ^GE | (BE)(^GE) (BE)(^GE) |\
(df)(af) (d=g)(ba) | (gf)(ed) B3d | TF2E2 E2(FA) | ~B3d TB2A2 :|
